X:1
T: Captain Rock
C:
R:Reel
Q: 232
K:D
M:4/4
L:1/8
|:G|AG AB cA GB|Ad de fd ec|((3AAA) AB cA Gc|df ed cA GB|
AD ((3DDD) cA GB|Ad de f2 fg|((3agf) ((3gfe) fd ec|df ed cA Af|
g2 ge c3e|g2 ge d3e|f2 fd e2 ec|df ed cA Af|
g2 ge a2 af|gf ge ab ag|f2 fd ef ec|df ed cd d:|
